X:1
T:Non fia ch'in donna
T:Non fia ch'in donna
T:Alessandro Effrem
T:Source : Primo libro delle villanelle a 3 voci---Venetia---Figlio d'A.Gardano---1574. Editor : André Vierendeels (13/03/16).
T:Notes : Original clefs : C1, C2, C4 Editorial accidentals above the staff Music by composers from Bari, collected by Giovanni de Antiquis "Alla napolitana"
T:©
T:©
C:Alessandro Effrem
Z:©
%%score [ 1 [ 2 3 ] ]
L:1/8
Q:1/4=120
M:4/4
K:C
V:1 treble nm="Alto" snm="A"
V:2 treble-8 nm="Tenor 1" snm="T 1"
V:3 treble-8 nm="Tenor 2" snm="T 2"
V:1
 z4 G4 | G2 F2 G2 D2 | E4 E2 C2 | C2 B,2 C2 D2 | E4 D2 E2 |[M:2/4] F2 D2 |[M:3/4] E4 D2 :: %7
w: 1)Non|fia ch'in don- na|ma- i, non|fia ch'in don- na|1. ma- i, met-|ta spe-|ran- za,|
w: 2)La|rag- gion lo di-|mo- stra, la|rag- gion lo di-|2. mo- stra, e|lor u-|san- za,|
w: 3)La|mia cru- del ch'o-|gni'as- pra, la|mia cru- del ch'o-|3. gni'as- pra, Ti-|gre a-|van- za,|
w: 4)Per-|fi- de ma non|tut- te, per-|fi- de ma non|4. tut- te, so-|no'e in|gra- te,|
 E2 E2 E2 |[M:4/4] F4 E4 | z2 E2 F2 G2 | E4 D2 C2- | C2 C2 D2 E2 | D4 C2 C2 | E2 C2 G4 | %14
w: che tut- to|so- no,|1. che tut- to|so- no mo|_ bil per na-|tu- ra, ch'a-|mor di don-|
w: si don- na'e|co- sa,|2. si don- na'e|co- sa mo-|* bil per na-|tu- ra, ch'a-|mor di don-|
w: mo- stra d'a-|mar- mi,|3. mo- stra d'a-|mar- mi'hor del|_ mio mal non|cu- ra, ch'a-|mor di don-|
w: o quan- te|han- no,|4. o quan- te|han- no gli'a-|* man- * *|* ti lor|pi- e- ta-|
 D2 D2 F3 G | A4 E2 A2- | A2 G4 F2- | F2 E2 D4 |[M:2/4] C4 :| %19
w: 1. na, ch'a- mor di|don- na, pic-|* ciol tem-|* po du-|ra.|
w: 2. na, ch'a- mor di|don- na, pic-|* ciol tem-|* po du-|ra.|
w: 3. na, ch'a- mor di|don- na, pic-|* ciol tem-|* po du-|ra.|
w: 4. te, sol è cag-|gion la mia|_ di cru-|* del- ta-|te.|
V:2
 z8 | c4 c2 B2 | c2 c2 A4 | A2 G2 A2 B2 | c2 c2 B2 c2 |[M:2/4] d2 d2- |[M:3/4]"^#" d2 c2 d2 :: %7
w: |1)Non fia ch'in|don- na ma-|i, non fia ch'in|1. don- na mai met-|ta spe-|* ran- za,|
w: |2)La rag- gion|lo di- mo-|stra, la rag- gion|2. lo di- mo- stra'e|lor u-|* san- za,|
"^-natural" c2 B2 c2 |[M:4/4] d4 ^c4 | z2 c2 d2 d2- |"^#" d2 c2 d2 A2- | A2 A2 B2 c2- | c2 B2 c4 | %13
w: che tut- to|so- no,|1. che tut- to|_ _ no mo-|* bil per na-|* tu- ra,|
w: si don- na'e|co- sa,|2. si don- na'e|_ co- sa mo-|* bil per na-|* tu- ra,|
 z4 G4 | B2 G2 d4 | A2 A2 c3 d | e2 e2 d2 d2 | A2 c4 B2 |[M:2/4] c4 :| %19
w: ch'a-|1. mor di don-|na, ch'a- mor di|don- na, pic- ciol|tem- po du-|ra.|
w: ch'a-|2. mor di don-|na, ch'a- mor di|don- na, pic- ciol|tem- po du-|ra.|
V:3
 c4 c2 B2 | c2 A2 G4 | C4 z2 F2 | F2 E2 F2 D2 | CDEF G2 A2 |[M:2/4]"^b" B2 G2 |[M:3/4] A4 D2 :: %7
w: 3)Ma mia cru-|del ch'o- gni'as-|pra, la|mia cru- del ch'io-|3. gn- 'as- * * pra, Ti-|gre a-|van- za,|
w: 4)Per- fi- de|ma non tut-|te, per-|fi- de ma non|4. tut- * * * te, so-|no'e in|gra- te,|
 A2 ^G2 A2 |[M:4/4] D4 A4 |"^b" z2 A2 B2 G2 | A4 D2 F2- | F2 F2 G2 A2 | G4 C4 | C4 E2 C2 | %14
w: mo- stra d'a-|mar- mi,|3. mo- stra- d'a-|mar- mi'hor del|_ mio mal non|cu- ra,|ch'a- mor di|
w: o quan- te|han- no,|4. o quan- te|han- no gli'a-|* man- * *|* ti|lor pi- e-|
 G4 D2 D2 | F3 G A4 | E4 G2 D2 | F2 C2 G4 |[M:2/4] C4 :| %19
w: 3. don- na, ch'a-|mor di don-|na, pic- ciol|tem- po du-|ra.|
w: 4. ta- te, sol|è cag- gion|la mia di|cru- del- ta-|te.|

